images/icons/arrow-type-1.svg

<svg width="18" height="14" viewBox="0 0 18 14" fill="none" xmlns="http://www.w3.org/2000/svg">
<path fill-rule="evenodd" clip-rule="evenodd" d="M10.0775 0.57733C10.4029 0.251893 10.9306 0.251893 11.256 0.57733L17.0893 6.41066C17.4148 6.7361 17.4148 7.26374 17.0893 7.58917L11.256 13.4225C10.9306 13.7479 10.4029 13.7479 10.0775 13.4225C9.75206 13.0971 9.75206 12.5694 10.0775 12.244L14.4882 7.83325H1.50008C1.03984 7.83325 0.666748 7.46016 0.666748 6.99992C0.666748 6.53968 1.03984 6.16658 1.50008 6.16658H14.4882L10.0775 1.75584C9.75206 1.4304 9.75206 0.902766 10.0775 0.57733Z" fill="#424F7B"/>
</svg>

<svg width="18" height="14" fill="none" xmlns="http://www.w3.org/2000/svg">
  <symbol id="arrow-type-1">
    <path
      d="M10.078.577a.833.833 0 0 1 1.178 0l5.833 5.834a.833.833 0 0 1 0 1.178l-5.833 5.833a.833.833 0 0 1-1.178-1.178l4.41-4.41H1.5a.833.833 0 1 1 0-1.667h12.988l-4.41-4.411a.833.833 0 0 1 0-1.179Z"
    />
  </symbol>
</svg>
